SVG_Azure_Grouped/Security/Adaptive Network Hardening.svg

<?xml version="1.0" encoding="UTF-8" standalone="no"?>
<!-- Generated by Microsoft Visio, SVG Export Adaptive Network Hardening.svg Page-1 -->

<svg
   xmlns:dc="http://purl.org/dc/elements/1.1/"
   xmlns:cc="http://creativecommons.org/ns#"
   xmlns:rdf="http://www.w3.org/1999/02/22-rdf-syntax-ns#"
   xmlns:svg="http://www.w3.org/2000/svg"
   xmlns="http://www.w3.org/2000/svg"
   xmlns:sodipodi="http://sodipodi.sourceforge.net/DTD/sodipodi-0.dtd"
   xmlns:inkscape="http://www.inkscape.org/namespaces/inkscape"
   width="0.77862352in"
   height="0.78744215in"
   viewBox="0 0 56.061073 56.695779"
   xml:space="preserve"
   class="st8"
   version="1.1"
   id="svg49"
   sodipodi:docname="Adaptive Network Hardening.svg"
   style="font-size:12px;overflow:visible;color-interpolation-filters:sRGB;fill:none;fill-rule:evenodd;stroke-linecap:square;stroke-miterlimit:3"
   inkscape:version="0.92.5 (2060ec1f9f, 2020-04-08)"><metadata
   id="metadata55"><rdf:RDF><cc:Work
       rdf:about=""><dc:format>image/svg+xml</dc:format><dc:type
         rdf:resource="http://purl.org/dc/dcmitype/StillImage" /></cc:Work></rdf:RDF></metadata><defs
   id="defs53" /><sodipodi:namedview
   pagecolor="#ffffff"
   bordercolor="#666666"
   borderopacity="1"
   objecttolerance="10"
   gridtolerance="10"
   guidetolerance="10"
   inkscape:pageopacity="0"
   inkscape:pageshadow="2"
   inkscape:window-width="640"
   inkscape:window-height="480"
   id="namedview51"
   showgrid="false"
   inkscape:zoom="1.4933292"
   inkscape:cx="37.37495"
   inkscape:cy="33.667628"
   inkscape:window-x="0"
   inkscape:window-y="0"
   inkscape:window-maximized="0"
   inkscape:current-layer="svg49" />
	<style
   type="text/css"
   id="style2">
	<![CDATA[
		.st1 {fill:#c7e4f0;stroke:none;stroke-linecap:butt;stroke-width:27.8182}
		.st2 {fill:#59b4d9;stroke:none;stroke-linecap:butt;stroke-width:27.8182}
		.st3 {fill:#b8d432;stroke:none;stroke-linecap:butt;stroke-width:27.8182}
		.st4 {fill:#57a300;stroke:none;stroke-linecap:butt;stroke-width:27.8182}
		.st5 {fill:#ffffff;fill-opacity:0.25;stroke:none;stroke-linecap:butt;stroke-width:27.8182}
		.st6 {fill:#429ec9;stroke:none;stroke-linecap:butt;stroke-width:27.8182}
		.st7 {fill:#74b7d7;stroke:none;stroke-linecap:butt;stroke-width:27.8182}
		.st8 {fill:none;fill-rule:evenodd;font-size:12px;overflow:visible;stroke-linecap:square;stroke-miterlimit:3}
	]]>
	</style>

	<g
   id="g47"
   transform="translate(-27.818198,-27.818536)">
		<title
   id="title4">Page-1</title>
		<g
   id="group17006-1"
   transform="translate(27.8184,-34.0157)">
			<title
   id="title6">Adaptive Network Hardening.17006</title>
			<g
   id="group17007-2">
				<title
   id="title8"> ASC_Adaptive-network-hardening</title>
				<g
   id="shape17008-3"
   transform="translate(0.786958,-1.22109)">
					<title
   id="title10">Sheet.17008</title>
					<path
   d="M 19.82,118.52 30.51,98.14 30.97,85.73 v -0.46 h 8.21 v -9.5 a 1.22254,1.20959 -180 0 0 -1.24,-1.23 h -0.31 c -0.77,0.16 -1.7,0.16 -2.48,0.16 -6.19,0 -11.76,-3.53 -14.4,-9.2 -0.31,-0.3 -0.62,-0.3 -1.08,-0.3 h -0.16 c -0.31,0 -1.08,0.3 -1.08,0.3 -2.63,5.52 -8.36,9.04 -14.56,9.04 -0.77,0 -1.54,0 -2.32,-0.15 H 1.24 C 0.46,74.39 0,74.85 0,75.62 v 23.75 c 0,1.69 0.31,3.07 1.08,4.45 l 0.31,0.15 a 35.2214,34.8484 -180 0 0 16.88,14.1 c 0,0 0.78,0.15 1.55,0.46 z"
   class="st1"
   id="path12"
   inkscape:connector-curvature="0"
   style="fill:#c7e4f0;stroke:none;stroke-width:27.81819916;stroke-linecap:butt" />
				</g>
				<g
   id="shape17009-5"
   transform="translate(25.4092,-0.152277)">
					<title
   id="title15">Sheet.17009</title>
					<path
   d="M 30.2,115.16 20.75,98 v -6.9 h 0.16 c 1.08,0 2.01,-0.92 2.01,-2.15 0,-1.22 -0.93,-2.14 -2.01,-2.14 H 10.53 c -1.08,0 -2.01,0.92 -2.01,2.14 0,1.23 0.93,2.15 2.01,2.15 h 0.16 V 98 L 1.08,115.16 C 0,117 0.93,118.53 2.94,118.53 h 25.25 c 2.16,0 3.09,-1.53 2.01,-3.37 z"
   class="st2"
   id="path17"
   inkscape:connector-curvature="0"
   style="fill:#59b4d9;stroke:none;stroke-width:27.81819916;stroke-linecap:butt" />
				</g>
				<g
   id="shape17010-7"
   transform="translate(30.52,-3.8299)">
					<title
   id="title20">Sheet.17010</title>
					<path
   d="M 3.87,111.48 0,118.53 h 21.22 l -4.03,-7.05 z"
   class="st3"
   id="path22"
   inkscape:connector-curvature="0"
   style="fill:#b8d432;stroke:none;stroke-width:27.81819916;stroke-linecap:butt" />
				</g>
				<g
   id="shape17011-9"
   transform="translate(39.6615,-5.66584)">
					<title
   id="title25">Sheet.17011</title>
					<path
   d="m 1.86,116.07 c 1.08,0 1.85,-0.92 1.85,-1.99 0,-0.31 0,-0.61 -0.15,-0.92 H 0.15 C 0,113.47 0,113.77 0,114.08 c 0,1.23 0.93,1.99 1.86,1.99 z m 3.4,1.54 a 0.92925,0.91940799 0 0 1 -1.8585,0 0.92925,0.91940799 0 1 1 1.8585,0 z"
   class="st4"
   id="path27"
   inkscape:connector-curvature="0"
   style="fill:#57a300;stroke:none;stroke-width:27.81819916;stroke-linecap:butt" />
				</g>
				<g
   id="shape17012-11"
   transform="translate(25.5631)">
					<title
   id="title30">Sheet.17012</title>
					<path
   d="m 0.93,115 9.45,-17.16 v -6.89 h -0.16 c -1.08,0 -2.01,-0.92 -2.01,-2.15 0,-1.23 0.93,-2.14 2.01,-2.14 h 4.49 V 97.84 L 9.76,118.53 H 2.94 C 0.77,118.37 0,116.84 0.93,115 Z"
   class="st5"
   id="path32"
   inkscape:connector-curvature="0"
   style="fill:#ffffff;fill-opacity:0.25;stroke:none;stroke-width:27.81819916;stroke-linecap:butt" />
				</g>
				<g
   id="shape17013-13"
   transform="translate(0,-1.06594)">
					<title
   id="title35">Sheet.17013</title>
					<path
   d="M 20.45,118.52 22,115.77 c 0,0 -0.46,0.15 -1.08,0.3 l -0.93,-0.3 C 13.02,113.01 7.44,108.41 3.73,102.13 L 3.57,101.97 C 2.95,100.75 2.64,99.68 2.64,98.3 V 74.54 H 2.8 c 0.77,0.16 1.7,0.16 2.32,0.16 6.5,0 12.54,-3.68 15.49,-9.35 h 0.46 c 2.79,5.82 8.83,9.5 15.33,9.5 0.78,0 1.71,0 2.48,-0.15 h 0.31 v 10.42 h 2.48 V 74.7 a 2.44509,2.41919 -180 0 0 -2.48,-2.45 h -0.47 c -0.61,0.15 -1.54,0.15 -2.17,0.15 -5.73,0 -10.84,-3.37 -13.32,-8.43 l -0.31,-0.3 A 2.56415,2.53699 -180 0 0 21.06,62.9 h -0.31 c -0.46,0 -0.93,0.15 -1.24,0.31 l -1.08,1.07 c -2.48,4.9 -7.74,8.12 -13.32,8.12 -0.77,0 -1.39,0 -2.17,-0.15 H 2.48 A 2.44509,2.41919 -180 0 0 0,74.7 v 23.75 c 0,1.84 0.46,3.37 1.24,5.06 l 0.15,0.31 c 4.03,6.58 10.07,11.49 17.51,14.4 0.31,-0.31 1.08,0 1.54,0.31 z"
   class="st6"
   id="path37"
   inkscape:connector-curvature="0"
   style="fill:#429ec9;stroke:none;stroke-width:27.81819916;stroke-linecap:butt" />
				</g>
				<g
   id="shape17014-15"
   transform="translate(2.33183,-3.8299)">
					<title
   id="title40">Sheet.17014</title>
					<path
   d="m 0,94.78 v 5.97 c 0,1.54 0.31,3.07 0.93,4.29 l 0.15,0.16 c 3.57,5.97 8.98,10.26 15.49,12.87 0,0 0.62,0.15 1.24,0.46 V 94.77 H 0 Z m 29.43,-6.59 v -0.46 h 7.43 l 0.16,-9.04 v -0.31 c 0,-0.77 -0.31,-1.53 -1.09,-1.53 H 35.47 C 34.69,77 33.61,77 32.83,77 26.64,77 21.68,73.32 18.74,67.2 c -0.31,0 -0.31,0 -0.62,0.15 v 27.73 h 11.31 z"
   class="st7"
   id="path42"
   inkscape:connector-curvature="0"
   style="fill:#74b7d7;stroke:none;stroke-width:27.81819916;stroke-linecap:butt" />
				</g>
			</g>
		</g>
	</g>
</svg>

<?xml version="1.0" encoding="UTF-8" standalone="no"?>
<!DOCTYPE svg PUBLIC "-//W3C//DTD SVG 1.1//EN" "http://www.w3.org/Graphics/SVG/1.1/DTD/svg11.dtd">
<!-- Generated by Microsoft Visio, SVG Export Adaptive Network Hardening.svg Page-1 -->
<svg xmlns="http://www.w3.org/2000/svg" xmlns:xlink="http://www.w3.org/1999/xlink" xmlns:ev="http://www.w3.org/2001/xml-events"
		width="1.55137in" height="1.64621in" viewBox="0 0 111.699 118.527" xml:space="preserve" color-interpolation-filters="sRGB"
		class="st8">
	<style type="text/css">
	<![CDATA[
		.st1 {fill:#c7e4f0;stroke:none;stroke-linecap:butt;stroke-width:27.8182}
		.st2 {fill:#59b4d9;stroke:none;stroke-linecap:butt;stroke-width:27.8182}
		.st3 {fill:#b8d432;stroke:none;stroke-linecap:butt;stroke-width:27.8182}
		.st4 {fill:#57a300;stroke:none;stroke-linecap:butt;stroke-width:27.8182}
		.st5 {fill:#ffffff;fill-opacity:0.25;stroke:none;stroke-linecap:butt;stroke-width:27.8182}
		.st6 {fill:#429ec9;stroke:none;stroke-linecap:butt;stroke-width:27.8182}
		.st7 {fill:#74b7d7;stroke:none;stroke-linecap:butt;stroke-width:27.8182}
		.st8 {fill:none;fill-rule:evenodd;font-size:12px;overflow:visible;stroke-linecap:square;stroke-miterlimit:3}
	]]>
	</style>

	<g>
		<title>Page-1</title>
		<g id="group16613-1" transform="translate(27.8184,-34.0157)">
			<title>Adaptive Network Hardening.16613</title>
			<g id="group16614-2">
				<title> ASC_Adaptive-network-hardening</title>
				<g id="shape16615-3" transform="translate(0.786958,-1.22109)">
					<title>Sheet.16615</title>
					<path d="M19.82 118.52 L30.51 98.14 L30.97 85.73 L30.97 85.27 L39.18 85.27 L39.18 75.77 A1.22254 1.20959 -180
								 0 0 37.94 74.54 L37.63 74.54 C36.86 74.7 35.93 74.7 35.15 74.7 C28.96 74.7 23.39 71.17 20.75 65.5
								 C20.44 65.2 20.13 65.2 19.67 65.2 L19.51 65.2 C19.2 65.2 18.43 65.5 18.43 65.5 C15.8 71.02 10.07
								 74.54 3.87 74.54 C3.1 74.54 2.33 74.54 1.55 74.39 L1.24 74.39 C0.46 74.39 0 74.85 0 75.62 L0 99.37
								 C0 101.06 0.31 102.44 1.08 103.82 L1.39 103.97 A35.2214 34.8484 -180 0 0 18.27 118.07 C18.27 118.07
								 19.05 118.22 19.82 118.53 L19.82 118.52 Z" class="st1"/>
				</g>
				<g id="shape16616-5" transform="translate(25.4092,-0.152277)">
					<title>Sheet.16616</title>
					<path d="M30.2 115.16 L20.75 98 L20.75 91.1 L20.91 91.1 C21.99 91.1 22.92 90.18 22.92 88.95 C22.92 87.73 21.99
								 86.81 20.91 86.81 L10.53 86.81 C9.45 86.81 8.52 87.73 8.52 88.95 C8.52 90.18 9.45 91.1 10.53 91.1
								 L10.69 91.1 L10.69 98 L1.08 115.16 C0 117 0.93 118.53 2.94 118.53 L28.19 118.53 C30.35 118.53 31.28
								 117 30.2 115.16 L30.2 115.16 Z" class="st2"/>
				</g>
				<g id="shape16617-7" transform="translate(30.52,-3.8299)">
					<title>Sheet.16617</title>
					<path d="M3.87 111.48 L0 118.53 L21.22 118.53 L17.19 111.48 L3.87 111.48 Z" class="st3"/>
				</g>
				<g id="shape16618-9" transform="translate(39.6615,-5.66584)">
					<title>Sheet.16618</title>
					<path d="M1.86 116.07 C2.94 116.07 3.71 115.15 3.71 114.08 C3.71 113.77 3.71 113.47 3.56 113.16 L0.15 113.16
								 C0 113.47 0 113.77 0 114.08 C0 115.31 0.93 116.07 1.86 116.07 L1.86 116.07 ZM5.26 117.61 a0.929249
								 0.919407 0 0 1 -1.8585 0 a0.929249 0.919407 0 1 1 1.8585 0 Z" class="st4"/>
				</g>
				<g id="shape16619-11" transform="translate(25.5631,0)">
					<title>Sheet.16619</title>
					<path d="M0.93 115 L10.38 97.84 L10.38 90.95 L10.22 90.95 C9.14 90.95 8.21 90.03 8.21 88.8 C8.21 87.57 9.14 86.66
								 10.22 86.66 L14.71 86.66 L14.71 97.84 L9.76 118.53 L2.94 118.53 C0.77 118.37 0 116.84 0.93 115 L0.93
								 115 Z" class="st5"/>
				</g>
				<g id="shape16620-13" transform="translate(2.79776E-13,-1.06594)">
					<title>Sheet.16620</title>
					<path d="M20.45 118.52 L22 115.77 C22 115.77 21.54 115.92 20.92 116.07 L19.99 115.77 C13.02 113.01 7.44 108.41
								 3.73 102.13 L3.57 101.97 C2.95 100.75 2.64 99.68 2.64 98.3 L2.64 74.54 L2.8 74.54 C3.57 74.7 4.5
								 74.7 5.12 74.7 C11.62 74.7 17.66 71.02 20.61 65.35 L21.07 65.35 C23.86 71.17 29.9 74.85 36.4 74.85
								 C37.18 74.85 38.11 74.85 38.88 74.7 L39.19 74.7 L39.19 85.12 L41.67 85.12 L41.67 74.7 A2.44509 2.41919
								 -180 0 0 39.19 72.25 L38.72 72.25 C38.11 72.4 37.18 72.4 36.55 72.4 C30.82 72.4 25.71 69.03 23.23
								 63.97 L22.92 63.67 A2.56415 2.53699 -180 0 0 21.06 62.9 L20.75 62.9 C20.29 62.9 19.82 63.05 19.51
								 63.21 L18.43 64.28 C15.95 69.18 10.69 72.4 5.11 72.4 C4.34 72.4 3.72 72.4 2.94 72.25 L2.48 72.25
								 A2.44509 2.41919 -180 0 0 0 74.7 L0 98.45 C0 100.29 0.46 101.82 1.24 103.51 L1.39 103.82 C5.42 110.4
								 11.46 115.31 18.9 118.22 C19.21 117.91 19.98 118.22 20.44 118.53 L20.45 118.52 Z" class="st6"/>
				</g>
				<g id="shape16621-15" transform="translate(2.33183,-3.8299)">
					<title>Sheet.16621</title>
					<path d="M0 94.78 L0 100.75 C0 102.29 0.31 103.82 0.93 105.04 L1.08 105.2 C4.65 111.17 10.06 115.46 16.57 118.07
								 C16.57 118.07 17.19 118.22 17.81 118.53 L17.81 94.77 L0 94.77 L0 94.78 ZM29.43 88.19 L29.43 87.73
								 L36.86 87.73 L37.02 78.69 L37.02 78.38 C37.02 77.61 36.71 76.85 35.93 76.85 L35.47 76.85 C34.69
								 77 33.61 77 32.83 77 C26.64 77 21.68 73.32 18.74 67.2 C18.43 67.2 18.43 67.2 18.12 67.35 L18.12
								 95.08 L29.43 95.08 L29.43 88.19 L29.43 88.19 Z" class="st7"/>
				</g>
			</g>
		</g>
	</g>
</svg>
